X:1
T:The Goat Herd & The Shepherd  "CYMRU"
M:6/8
L:1/8
Q:80
C:
S:Jig
K:HP
|: a|
c3/2{d}A/2{e}A{g}c3/2{d}A/2{e}A|
B3/2{d}G/2{e}G{Gdc}d2B|
c3/2{d}A/2{e}A{g}c3/2{d}A/2{e}A|  !
{gef}e2{GdG}e{ag}a2e| |
c3/2{d}A/2{e}A{g}c3/2{d}A/2{e}A|
B3/2{d}G/2{e}G{Gdc}d2B|  !
{g}c/2e3/2c{Gdc}d2B|
{g}c3/2{d}A/2{e}A{ag}a2:| |:
c3/2{d}A/2{e}Ae{g}Ag|  !
{a}B3/2{d}G/2{e}G{Gdc}d2B|
{g}c3/2{d}A/2{e}Ae{g}Aa|
c3/2{d}A/2{e}A{gfg}f2e| |  !
c3/2{d}A/2{e}Ae{g}Ag|
{a}B3/2{d}G/2{e}G{Gdc}d2B|
{g}c/2e3/2c{Gdc}d2B|  !
{g}c3/2{d}A/2{e}A{ag}a2:| |:
g|
{a}f3/2d/2{c}da3/2d/2{c}d|
{gef}e3/2c/2{G}c{gf}g2e|  !
{g}f3/2d/2{c}da3/2d/2{c}d|
{g}f3/2d/2{c}d{ag}a2g| |
{a}f3/2d/2{c}da3/2d/2{c}d|  !
{gef}e3/2c/2{G}c{gf}g2e|
{g}f/2a3/2f{gf}g2e|
{g}f3/2d/2{c}d{gdc}d2:| |:  !
g|
{a}fed{g}c3/2{d}A/2{e}A|
{gef}e3/2c/2{G}c{g}c2g|
{a}fed{g}c3/2{d}A/2{e}A|  !
{g}f3/2d/2{c}d{gdc}d2g| |
{a}fed{g}c3/2{d}A/2{e}A|
{gef}e3/2c/2{G}c{g}c2g|  !
{g}f/2a3/2f{gf}g2e|
{g}f3/2d/2{c}d{gdc}d2:|

